X: 7793
T: Come My Way
R: barndance
M: 4/4
K: Gminor
G2 B2 A2 D2|E2 C2 D4|B2 d2 c2 F2|G2 A2 B4||
D2 G2 =E2 E2|c2 A2 ^F4|d2 D2 G2 AB|cBAG G4:|

